X:1
T:Hie Over Hunt [1]
T:Hie Over Hunt [1]
T:Nathaniel Gow (1763-1831)
C:Nathaniel Gow (1763-1831)
L:1/8
M:4/4
K:Bb
V:1 treble 
V:1
 d | B<B B>D (D/E/F) F>d | B<B{Bc} d<B cC C>c | B<B B>D TF2 F>g | f<B{Bc} d>c BB,B, :| g | %6
 f<f f>d (Tf3/2=e/4f/4) bd | f<f b>d gccg | f<f f>d (Tf3/2=e/4f/4) g_e | d>B c>A BB,B,>g | %10
 f<f f>d (Tf3/2=e/4f/4) b>d | f<f b>d gccg | f<f e>c d>B c>A | B>F GB DB,B, || %14

